X:412
T: Belagerung von Landau (130), S. 297
N: T0300
O: Luxemburg
S: Singendes Volk, Esch-Alzette 1937, posth.]
N: Savelborn, hhh "Grovater" Schmit, 1908
R: historische, Kriegs- und Soldatenlieder]
M: 3/4
L: 1/8
K: G
D2 | G2G2G2 | G2G2BB | A2B2A2 | G4
D2 | G2G2G2 | G2G2BB | A2B2A2 | G4
B2 | B2A2B2 | A2G2A2 | B2A2B2 | A2G2
D2 | G4G2 | G2G2B2 | AAB2A2 | GGz2

@@@ Tune index: 8466
